!!!CDT:
!!!PTL: Le Musiche del Cavalier Sigismondo D'India a una et due voci da cantarsi nel chitarrone, clavicembalo, arpa doppia et altri stromenti da corpo
!!!PPP: Venice
!!!PPR: Alessandro Vincenzi
!!!PDT: 1621
!!!RISM: I 33
!!!rime:
!!!AGN: Madrigal
!!!SCT: Tsg12067b
!!!SCA: Tsg12067b
!!!voices:
!!!COM: D'India, Sigismondo
!!!OTL: Poco quindi lontan nel sen del monte
**kern	**fb	**kern	**text
*part2	*part2	*part1	*part1
*staff2	*staff2	*staff1	*staff1
*I"Basso continuo	*	*I"Canto	*
*I'Bc	*	*I'C	*
*oclefF4	*	*oclefC1	*
*clefF4	*	*clefG2	*
*k[b-]	*	*k[b-]	*
*F:	*	*F:	*
*omet(C)	*	*omet(C)	*
*M4/4	*	*M4/4	*
=1	=	=	=
!	!	!LO:TX:a:t=Seconda parte.	!
[1GG	.	2.b-y	Po-
.	.	4b-y	-co
=2	=2	=2	=2
1GG]	.	4b-y	quin-
.	.	8b-y	-di
.	.	8b-y	lon-
.	.	[2b-y	-tan
=3	=3	=3	=3
1GG	10:11:#	4b-]	.
.	.	4a	nel
.	.	4.a	sen
.	.	8g	del
=4	=4	=4	=4
4GG	.	2g	mon-
8GL	.	.	.
8FJ	.	.	.
[2E	.	4g	-te
.	.	8cc	Sca-
.	.	8cc	-tu-
=5	=5	=5	=5
2E]	.	4b-y	-ria
.	.	8a	mor-
.	.	8g	-mo-
4F	.	16aL	-ran-
.	.	16b-y	.
.	.	16cc	.
.	.	16ddJ	.
4AA	.	[4ee	.
=6	=6	=6	=6
1C	3:4:3	4ee]	.
.	.	4f	-d'un
.	.	4.f	pic-
.	.	8e	-ciol
=7	=7	=7	=7
1FF	.	2f	rio.
.	.	2f	E-
=8	=8	=8	=8
1FF	.	4f	-gli
.	.	8g	v'ac-
.	.	8a	-cor-
.	.	4.a	-se
.	.	8e	e'l
=9	=9	=9	=9
2AA	.	4e	el-
.	.	4f	-mo em-
2BB-y	.	4.d	-piè
.	.	8g	nel
=10	=10	=10	=10
1GG	.	2g	fon-
.	.	2g	-te,
=11	=11	=11	=11
1C	.	8r	.
.	.	8e-X	E
.	.	8d	tor-
.	.	8c	-nò
.	.	[2c	me-
=12	=12	=12	=12
1GG	11:#	8c]	.
.	.	8d	-sto al
.	.	8d	gran-
.	.	8d	-de uf-
.	.	[2d	-fi-
=13	=13	=13	=13
1AA	7:6#	4d]	.
.	.	4e	-cio e
.	.	[2c	pi-
=14	=14	=14	=14
1GG	11:#	2.c]	.
.	.	(<4BnX	-o.
=15	=15	=15	=15
1C	.	1c)	.
=16	=16	=16	=16
(<1C	.	4r	.
.	.	4e-X	Tre-
.	.	(<2e-i	-mar
=17	=17	=17	=17
2C#X)	.	8enX)	.
.	.	8f	sen-
.	.	8e	-tì
.	.	8d	la
2D	.	2f#X	man,
=18	=18	=18	=18
(>2D	6	8r	.
.	.	8b-y	Tre-
.	.	(>4b-y	-mar
2E)	6	8bnX)	.
.	.	8cc	sen-
.	.	8b-i	-tì
.	.	8a	la
=19	=19	=19	=19
1E	6	1cc	man,
=20	=20	=20	=20
2E	.	4cc	men-
.	.	8b-y	-tre
.	.	8a	la
2F	.	2a	fron-
=21	=21	=21	=21
2F	.	4a	-te,
.	.	8r	.
.	.	8b-y	Non
2D	6	8b-y	co-
.	.	8b-y	-no-
.	.	8b-y	-sciu-
.	.	8cc	-ta an-
=22	=22	=22	=22
2F	.	4cc	-cor,
.	.	16ddL	sciol-
.	.	16cc	.
.	.	16b-y	.
.	.	16aJ	.
2E	.	4g	.
.	.	8f	-se e
.	.	8g	sco-
=23	=23	=23	=23
1D	11:#	2a	-pri-
.	.	2a	-o.
=24	=24	=24	=24
1GG	.	8r	.
.	.	8b-y	La
.	.	2b-y	vi-
.	.	4b-y	-de,
=25	=25	=25	=25
1C	.	4r	.
.	.	8ee-i	la
.	.	8ee-i	co-
.	.	4ee-i	-nob-
.	.	[4cc	-be; e
=26	=26	=26	=26
1FF	.	4cc]	.
.	.	8b-y	re-
.	.	8a	-stò
.	.	8f	sen-
.	.	8f	-za
.	.	[4f	e
=27	=27	=27	=27
2AA	11:#	4f]	.
.	.	8d	vo-
.	.	8c#X	-ce e
2D	.	4.d	mo-
.	.	8dd	-to. Ahi
=28	=28	=28	=28
2.E	.	4bnX	vi-
.	.	2ee	-sta, ahi
[4A	.	8ccnXi	co-
.	.	8bnX	-no-
=29	=29	=29	=29
4A]	.	1bnX	-scen-
8DL	.	.	.
8DJ	.	.	.
2E	11:#	.	.
=30	=30	=30	=30
2AA	.	2a	-za,
4D	.	8r	.
.	.	8dd	ahi
[4F#X	.	4a	vi-
=31	=31	=31	=31
2.F#]	.	4a	-sta,
.	.	8r	.
.	.	8dd	ahi
.	.	4a	vi-
4C	.	4ee-X	-sta, ahi
=32	=32	=32	=32
1D	#:11:#	4r	.
.	.	8a	co-
.	.	8a	-no-
.	.	2a	-scen-
=33	=33	=33	=33
1GGl	.	1gl	-za.
==	==	==	==
*-	*-	*-	*-
!!!system-decoration: [*]
!!!RDF**kern: > = above
!!!RDF**kern: < = below
!!!RDF**kern: i = editorial accidental
!!!RDF**kern: l = terminal long
!!!ENC: Emiliano Ricciardi
!!!END:
!!!EED: Ricciardi, Emiliano
!!!EEV: 2020/01/19
!!!YEC: Copyright 2018 Emiliano Ricciardi, All Rights Reserved
!!!ONB: Translated from MusicXML on 2020/01/19
!!@@BEGIN:	VERSEDATA
!!@CATALOGNUM:	Tsg12067
!!@LAST_MODIFIED: 2020/07/18
!!@TITLE:		Poco quindi lontan nel sen del monte
!!@CANTO:		XII
!!@OTTAVA:	67
!!@MANUSRC:	G-Al, G-Am, G-Au, G-Br<sub>1</sub>, G-Br<sub>2</sub>, G-Cv, G-Es<sub>1</sub>, G-Es<sub>2</sub>, G-Es<sub>3</sub>, G-F, G-Fr, G-Fr<sub>1</sub>, G-Fr<sub>2</sub>, G-Mc, G-Mc<sub>1</sub>, G-Mg, G-Mr, G-Mt, G-N, G-Ol
!!@PRINTSRC:	G-1580CM, G-1581B, G-1581CV, G-1581R, G-1581MR, G-1581P, G-1581V, G-1581V<sub>bis</sub>, G-1582C, G-1582M, G-1582MC, G-1582P, G-1582SC, G-1582SC<sub>bis</sub>, G-1583S, G-1584O, G-1584S, G-1585C, G-1585S, G-1588S, G-1589S, G-1590B, G-1590S, G-1592S, G-1593S, G-1594C, G-1595C, G-1597C, G-1598C, G-1599C, G-1600C, G-1600S, G-1601C, G-1601R, G-1602C, G-1604C, G-1604Cl, G-1604F, G-1604P, G-1606B, G-1606B<sub>bis</sub>, G-1606L, G-1607ZR, G-1608DP, G-1609GC, G-1610M, G-1611S, G-1611V, G-1612P, G-1613M, G-1613P, G-1613V, G-1615P, G-1616M, G-1617P, G-1619B, G-1619V, G-1620M, G-1620S, G-1621R, G-1624I, G-1624MT, G-1625C, G-1625S, G-1625SS, G-1626C, G-1626Co, G-1627M, G-1628T, G-1628Tu, G-1630L, G-1630T, G-1632FT, G-1639CF, G-1642M, G-1643I, G-1644P, G-1644S
!!@@BEGIN:	VERSES
!!@ABOUTIT:
!!@ABOUTEN:
!!@EDITOR:	Angelo Solerti
!!@EDITION_TITLE: Gerusalemme liberata. Poema eroico di Torquato Tasso. Edizione critica sui manoscritti e le prime stampe.
!!@EDITION_LOC:	Florence
!!@EDITION_PUB:	G. Barbera
!!@EDITION_DATE:  1895
!!@EDITION_VOL:
!!@EDITION_PAGE:
!!@TRANSLATOR:	Emiliano Ricciardi and Amyrose McCue Gill
!!@VERSE:
!!	Poco quindi lontan nel sen del monte
!!	Scaturia, mormorando, un picciol rio.
!!	Egli v’accorse, e l’elmo empiè nel fonte,
!!	E tornò mesto al grande ufficio e pio.
!!	Tremar sentì la man, mentre la fronte,
!!	Non conosciuta ancor, sciolse e scoprío.
!!	La vide, la conobbe; e restò senza
!!	E voce, e moto. Ahi vista, ahi conoscenza!
!!@MVERSE_DATE: 20230824
!!@MVERSE:
!!	Po||co quin||di lon|tan|| nel sen del mon||te		=a*
!!	Sca|tu||ria, mor|mo|ran||do,_un pic|ciol|| ri||o.	=b
!!	E||gli v’ac|cor||se,_e_l’el||mo_em||piè nel fon||te,	=a
!!	E tor|nò|| me||sto_al gran||de_uf|fi||cio_e p||io.	=b
!!	Tre|mar|| sen|tì|| la man, men||tre la fron||te,	=a*
!!	Non co|no|sciu||ta_an|cor||, sciol||se_e sco|prí||o.	=b
!!	La vi||de, la co|nob||be;_e re|stò|| sen||za		=c*
!!	E vo||ce,_e mo||to._Ahi vi||sta,_ahi co|no|scen||za!	=c
!!@TVERSE:
!!	Not far, therefore, from the bosom of the mountain
!!	Springs, murmuring, a little stream.
!!	He spotted it, and his helmet filled at the source,
!!	And he returned, saddened, to his important and pious office.
!!	He felt his hand tremble, while her forehead,
!!	Not yet recognized, he wetted and uncovered.
!!	He saw her, knew her; and was left without
!!	Either voice or motion. Alas sight, alas recognition!
!!@@END:		VERSES
!!@OTHER_CRIT_ED:  Torquato Tasso, <i>Gerusalemme liberata</i>, ed. Lanfranco Caretti, 2 vols. (Bari: Laterza, 1967).
!!@ATTRIBUTION_ABOUT:
!!@DATING:	mid-1560s through 1570s
!!@DEDICATEE:	Duke Alfonso II d'Este
!!@COMMENTARY:
!!@@END:		VERSEDATA
!!@@BEGIN: SETTING
!!@CATALOGNUM:	Tsg12067b
!!@CANTO:		XII
!!@OTTAVA:	67
!!@TITLE:	Poco quindi lontan nel sen del monte
!!@COMPOSER:	D'India, Sigismondo
!!@PARTS:		2 of 3
!!@PRINCEPSTITLE:	Le Musiche del Cavalier Sigismondo D'India a una et due voci da cantarsi nel chitarrone, clavicembalo, arpa doppia et altri stromenti da corpo
!!@PRINCEPSLOC:	Venice
!!@NORMLOC:	Venice
!!@NORMPUB:	Alessandro Vincenzi
!!@NORMPUBSHORT:	A. Vincenzi
!!@PRINCEPSPUB:	Alessandro Vincenti
!!@PRINCEPSYEAR:	1621
!!@PRINCEPSRISM:	I 33
!!@OVOICES:	1+bc
!!@EXTANTVOICES:	1+bc
!!@OMENSURATION:	C
!!@OCLEFS:	C1,F4
!!@OTIME:		
!!@OKEYSIG:	b-
!!@FINAL:		(G)G
!!@TIMPEDITOR:	Ricciardi, Emiliano
!!@REPRINTS:	
!!@@END: SETTING
